X: 241
T: The Pantheon
P: Cotillon
R: Cotillon
B: C. & S. Thompson, "The Compleat Tutor for the Fife" c.1760 p.24 #1
S: http://imslp.org/wiki/The_Compleat_Tutor_for_the_Fife_(Anonymous)
Z: 2014 John Chambers <jc:trillian.mit.edu>
N: The 2nd strain has initial repeat but no final repeat.  Not fixed.
M: 6/8
L: 1/8
K: G
% - - - - - - - - - - - - - - - - - - - - - - - - -
|:\
d2d d2c | B2B B2A | G2G AGA | B2B B2z |\
d2d d2c | B2B B2A | G2G AGA | G3- HG2 ::
b2b bag | a2d def | g2g gfe | f2B Bcd |\
e2e edc | d2G GAB | cdc BcB | A3- A2 |]
B3 AGA | BcB AGA | BcB AGA | BcB A3 |\
a2a a2g | f2f f2e | d2d Tede | (d3- d2 G//A//B//c//) "_da Capo"y0|]
% - - - - - - - - - - - - - - - - - - - - - - - - -

%%sep 1 1 500
%%sep 1 1 500

